X:1
T:Title
%%score { ( 1 4 ) | ( 2 3 ) }
L:1/8
M:3/4
K:C
V:1 bass nm="Grand Piano"
V:4 bass 
V:2 bass 
V:3 bass 
V:1
 z2 z2[Q:1/4=100] [E,C][B,D] | [G,CE]2 [A,CE]2 [A,C^F]2 | [G,B,G]2 [B,DG]2 [CEG]2 | %3
 [CFA]2 [DFA]2 [DFB]2 | [Ec]2 [Ec]2 [Gd]2 | [Ge]2 [B,Gd]2 .[CGc]2 | [DGB]2 [D^FA]2 [B,EG]2 | %7
 [CEA]2 [B,DG]2 [A,C^F]2 | [G,B,G]4[K:bass] [E,C][B,D] | [G,CE]2 [A,CE]2 [A,C^F]2 | %10
 [G,B,G]2 [B,DG]2 [CEG]2 | [CFA]2 [DFA]2 [DFB]2 | [Ec]2 [Ec]2 [Gd]2 | [Ge]2 [B,Gd]2 .[CGc]2 | %14
 [DGB]2 [D^FA]2 [B,EG]2 | [CEA]2 [B,DG]2 [A,C^F]2 | [G,B,G]4 [G,DG]2 | [G,CE]2 .[A,CE]2 [B,DG]2 | %18
 E2 D2 E2 | F4 z2 | [G,B,D]4 [G,DG]2 | [G,CE]2 .[A,CE]2 [B,DG]2 | E2 D2 E2 | F4[K:bass] z2 | %24
 [G,B,D]4 [B,D]2 | [G,CE]2[K:treble] [G,CE]2 [CEG]2 | [G,DG]2 [G,B,D]2 [G,CG]2 | %27
 [CFA]2 [CEG]2 [DF]E | [CD]2 [G,B,D]2 [G,CG]2 | [Ec]2 [CG]2 [CFA]2 | [B,DG]2 [G,DF]2 [G,CE]2 | %31
 [F,CF]2 .[G,B,G]2 [G,CE]2 | [CE]4[K:bass] [F,B,D]2 |[M:6/4] .[E,C]6 z6 |[M:3/4] [F,A,C]6 | %35
 [E,G,C]6 |] %36
V:2
 z2 z2 z F, | C,2 A,,2 D,2 | G,,2 G,2 E,2 | F,2 D,2 G,2 | [C,C]2 [C,C]2 [G,B,]2 | %5
 [C,C]2 G,,2 z ^F | B,,C, D,2 E,2 | C,2 D,2 D,2 | G,,4 z F, | C,2 A,,2 D,2 | G,,2 G,2 E,2 | %11
 F,2 D,2 G,2 | [C,C]2 [C,C]2 [G,B,]2 | [C,C]2 G,,2 z ^F | B,,C, D,2 E,2 | C,2 D,2 D,2 | G,,4 B,,2 | %17
 C,2 z F G,,2 | [C,G,C]2 [F,G,B,]2 [E,G,C]2 | [D,A,]2 z2 z2 | G,,4 B,,2 | C,2 z F G,,2 | %22
 [C,G,C]2 [F,G,B,]2 [E,G,C]2 | [D,A,]2 z2 z2 | G,,4 G,2 | C,2 E,2 C,2 | B,,2 G,,2 E,2 | %27
 z2 z2 [F,A,]2 | G,2 G,,2 E,D, | [C,G,]2 E,2 F,2 | G,2 B,,2 C,2 | A,,2 z F C,2 | G,4 G,,2 | %33
[M:6/4] .C,6 z6 |[M:3/4] F,,6 | C,6 |] %36
V:3
 z2 z2 C,2 | x6 | x6 | x6 | x6 | z2 z2 A,,2 | x6 | x6 | z2 z2 C,2 | x6 | x6 | x6 | x6 | %13
 z2 z2 A,,2 | x6 | x6 | x6 | z2 A,,2 z2 | x6 | D2- [B,,D]2 C,2 | x6 | z2 A,,2 z2 | x6 | %23
 D2- [B,,D]2 C,2 | x6 | x6 | x6 | F,2 C,2 z C | x6 | x6 | x6 | z2 G,,2 z2 | x6 |[M:6/4] x12 | %34
[M:3/4] x6 | x6 |] %36
V:4
 x6 | x6 | x6 | x6 | x6 | x6 | x6 | x6 | x4[K:bass] x2 | x6 | x6 | x6 | x6 | x6 | x6 | x6 | x6 | %17
 x6 | x6 | z2 G,2 [G,CE]2 | x6 | x6 | x6 | z2[K:bass] G,2 [G,CE]2 | x6 | x2[K:treble] x4 | x6 | %27
 x6 | x6 | x6 | x6 | x6 | x4[K:bass] x2 |[M:6/4] x12 |[M:3/4] x6 | x6 |] %36

